assets/linkedin.svg

<svg fill="none" height="24" viewBox="0 0 21 24" width="21" xmlns="http://www.w3.org/2000/svg"><path d="m19.5 1.5h-18.00469c-.824998 0-1.49531.67969-1.49531 1.51406v17.97184c0 .8344.670312 1.5141 1.49531 1.5141h18.00469c.825 0 1.5-.6797 1.5-1.5141v-17.97184c0-.83437-.675-1.51406-1.5-1.51406zm-13.15313 18h-3.11249v-10.02188h3.11718v10.02188zm-1.55625-11.39062c-.99843 0-1.80468-.81094-1.80468-1.80469s.80625-1.80469 1.80468-1.80469c.99375 0 1.80469.81094 1.80469 1.80469 0 .99843-.80625 1.80469-1.80469 1.80469zm13.22348 11.39062h-3.1125v-4.875c0-1.1625-.0235-2.6578-1.6172-2.6578-1.6219 0-1.8703 1.2656-1.8703 2.5734v4.9594h-3.11254v-10.02188h2.98594v1.36878h.0422c.4172-.7875 1.4344-1.61721 2.9484-1.61721 3.15 0 3.736 2.07651 3.736 4.77651z" fill="#000"/></svg>

<svg width="21" height="24" viewBox="0 0 21 24" fill="none" xmlns="http://www.w3.org/2000/svg">
<path d="M19.5 1.5H1.49531C0.670312 1.5 0 2.17969 0 3.01406V20.9859C0 21.8203 0.670312 22.5 1.49531 22.5H19.5C20.325 22.5 21 21.8203 21 20.9859V3.01406C21 2.17969 20.325 1.5 19.5 1.5ZM6.34687 19.5H3.23438V9.47812H6.35156V19.5H6.34687ZM4.79062 8.10938C3.79219 8.10938 2.98594 7.29844 2.98594 6.30469C2.98594 5.31094 3.79219 4.5 4.79062 4.5C5.78437 4.5 6.59531 5.31094 6.59531 6.30469C6.59531 7.30312 5.78906 8.10938 4.79062 8.10938V8.10938ZM18.0141 19.5H14.9016V14.625C14.9016 13.4625 14.8781 11.9672 13.2844 11.9672C11.6625 11.9672 11.4141 13.2328 11.4141 14.5406V19.5H8.30156V9.47812H11.2875V10.8469H11.3297C11.7469 10.0594 12.7641 9.22969 14.2781 9.22969C17.4281 9.22969 18.0141 11.3062 18.0141 14.0062V19.5V19.5Z" fill="black"/>
</svg>
